X:2
T:The Woodcock
C:Hammy Hamilton
N:Play 2 times through
N:Hurry the Jug, tune 2
Z:Gordon Turnbull, Edinburgh
Z:gturnbull@theflow.org.uk
Z:http://www.theflow.org.uk
R:Jig
M:6/8
K:G
dBG cGE | DED ~G3 | ~B3 dBG | dcB ABc |
dBG cGE | DED ~G3 | ~B3 dcA | AGF G2 B :||
dBG ecA | fef gfg | ege dBG | dcB ABc |
dBG ecA | fef gfg | ege dBA | AGF GBc |
dBG ecA | fef gfg | ege dBG | dcB ABc |
dBG cGE | DED ~G3 | ~B3 dcA | AGF G2 B |]
